X:1
T:Ditene'o buon Pastori
T:Giovanni Ani muccia
T:Source : Secondo libro delle Laude spirituali a tre et quattro voci---Roma---A.Gardano---1583. Editor : André Vierendeels (26/11/17). Notes : Original clefs : G2,C1, C3 Editorial accidentals above the staf Original note values have been halved in 3-beat measures Music empiled by Francisco Soto de Langa
T:Ditene'o buon Pastori
T:©
T:©
C:Giovanni Ani muccia
Z:©
%%score [ 1 2 3 ]
L:1/8
Q:1/4=120
M:3/4
K:F
V:1 treble nm="Soprano 1" snm="S 1"
V:2 treble nm="Soprano 2" snm="S 2"
V:3 treble-8 nm="Tenor" snm="T"
V:1
"^1)" F2 c2 c2 | c4 c2 | d4 c2 |[M:2/2] f4 e2 d2 | c3 B A4 | G8 :: z4 A4 | F6 F2 | G2 A2 B4 | %9
w: Di- te- ne'o|buon Pa-|sto- ri,|on- de vien|tan- ta lu-|ce,|che|n'ei pro-|fon- di'hor- ro-|
w: E na- to|l'o- ri-|en- te,|na- to'è'il sol'|di giu- sti-|zia,|che|da l'os-|cu- ra men-|
 A4 c2 cc | d2 c2 c3 B | A2 B2 G4 | F8 :| %13
w: ri di me- za|not- te'il me- zo|gior- no'a- du-|ce.|
w: te, sgom- bra'il pec-|ca- to'e scac- cia'o-|gni me- sti-|zia.|
V:2
"^2)""^1)" F2 A2 A2 | A4 A2 | B4 A2 |[M:2/2] d4 G2 G2 | E2 F2 F4 | E8 :: z4 F4 | D6 C2 | D2 F4 E2 | %9
w: Di- te- ne'o|buon Pa-|sto- ri,|on- de vien|tan- ta lu-|ce,|che|n'ei pro-|fon- di'hor- ro-|
w: Di- te- ne'o|Pa- stor'|san- ti.|Ond' è que-|st'Ar- mo- ni-|a?|Ei|non u-|sa- ti can-|
 F4 A2 AA | B2 A2 A2 G2 | F2 F4 E2 | F8 :| %13
w: ri di me- za|not- te'il me- zo|gior- no'a- du-|ce.|
w: ti, ch'em- pion l'a-|ria di dol- ce|me- lo- di-|a.|
V:3
"^3)""^1)""^4)" F2 F2 f2 | f4 f2 | B4 f2 |[M:2/2] B4 c2 G2 | A2 F2 F4 | c8 :: z4 F4 | B6 A2 | %8
w: Di- te- me'o|buon Pa-|sto- ri,|on- de vien|tan- ta lu-|ce,|che|n'ei pro-|
w: Fan fe- ste|l'al- te|spe- re,|che fi- ni-|ta'è la guer-|ra;|et|l'an- ge-|
 G2 F2 G4 | F4 f2 ff | B2 f2 f2 c2 | d2 B2 c4 | F8 :| %13
w: fon- di'hor- ro-|ri di me- za|not- te'il me- zo|gior- no'a- du-|ce.|
w: li- che schier-|re an- nun- tian|glo- ria'in cie- lo'et|pa- ce'in ter-|ra.|

